src/assets/flags/pf.svg

<?xml version="1.0" encoding="UTF-8"?>
<svg xmlns="http://www.w3.org/2000/svg" xmlns:xlink="http://www.w3.org/1999/xlink" width="25px" height="px" viewBox="0 0 25 19" version="1.1">
<g id="surface1">
<rect x="0" y="0" width="25" height="19" style="fill:rgb(100%,100%,100%);fill-opacity:1;stroke:none;"/>
<path style=" stroke:none;fill-rule:nonzero;fill:rgb(100%,100%,100%);fill-opacity:1;" d="M 3.125 0 L 21.875 0 L 21.875 19 L 3.125 19 Z M 3.125 0 "/>
<path style="fill-rule:evenodd;fill:rgb(3.137255%,23.921569%,61.176473%);fill-opacity:1;stroke-width:2.5;stroke-linecap:butt;stroke-linejoin:miter;stroke:rgb(3.137255%,23.921569%,61.176473%);stroke-opacity:1;stroke-miterlimit:4;" d="M 277.3 340.756579 C 277.3 340.756579 288.1 331.973684 298.7 331.973684 C 309.3 331.973684 312.1 339.276316 319.5 339.868421 C 326.8 340.460526 332.9 332.565789 342 332.269737 C 351.1 331.973684 362.5 338.684211 362.5 338.684211 L 322.7 350.723684 L 277.3 340.657895 Z M 254.4 327.828947 L 389.8 328.519737 C 389.8 328.519737 378.1 315.789474 364.3 315.493421 C 350.5 315.296053 354.3 321.513158 343.8 322.302632 C 333.2 323.190789 330.6 315.888158 320.9 316.085526 C 311.2 316.282895 305.7 322.302632 298.4 322.598684 C 291.1 322.894737 281.7 315.296053 276.1 315.592105 C 270.5 315.888158 250.6 324.276316 250.6 324.276316 L 254.4 327.927632 Z M 237.1 311.842105 L 404.1 312.335526 C 406.8 308.486842 395.9 299.407895 386 298.618421 C 377.8 298.914474 372 307.105263 365.2 307.401316 C 358.4 307.697368 350.8 298.914474 343.2 299.210526 C 335.6 299.506579 327.7 307.401316 320.1 307.401316 C 312.5 307.401316 306.9 298.914474 297.2 298.914474 C 287.5 298.914474 283.2 308.190789 275.8 307.697368 C 268.4 307.203947 262 298.322368 255 298.322368 C 248 298.322368 236.3 308.782895 234 308.289474 C 231.6 307.598684 236.9 312.631579 237.1 311.743421 Z M 237.1 311.842105 " transform="matrix(0.0390625,0,0,0.0395833,0,0)"/>
<path style="fill-rule:evenodd;fill:rgb(100%,0%,0%);fill-opacity:1;stroke-width:2.5;stroke-linecap:butt;stroke-linejoin:round;stroke:rgb(0%,0%,0%);stroke-opacity:1;stroke-miterlimit:4;" d="M 301.3 218.881579 L 339.7 229.144737 L 339.7 174.276316 C 322.1 175.263158 307.5 140.921053 338.5 138.552632 C 308 134.210526 304.5 142.105263 301 150.592105 Z M 301.3 218.881579 " transform="matrix(0.0390625,0,0,0.0395833,0,0)"/>
<path style="fill-rule:evenodd;fill:rgb(3.137255%,23.921569%,61.176473%);fill-opacity:1;stroke-width:5;stroke-linecap:round;stroke-linejoin:miter;stroke:rgb(3.137255%,23.921569%,61.176473%);stroke-opacity:1;stroke-miterlimit:4;" d="M 277 258.651316 L 363.7 259.046053 " transform="matrix(0.0390625,0,0,0.0395833,0,0)"/>
<path style="fill:none;stroke-width:4;stroke-linecap:round;stroke-linejoin:miter;stroke:rgb(0%,0%,0%);stroke-opacity:1;stroke-miterlimit:4;" d="M 281.1 238.026316 L 291.4 251.743421 M 281.1 251.743421 L 292.2 238.223684 M 287 237.039474 L 286.7 245.526316 M 297.5 237.927632 L 307.8 251.743421 M 297.5 251.743421 L 308.6 238.223684 M 303.4 237.039474 L 303.1 245.526316 M 314.2 237.927632 L 324.5 251.743421 M 314.2 251.743421 L 325.3 238.223684 M 320.1 237.039474 L 319.8 245.526316 M 331.5 237.927632 L 341.7 251.743421 M 331.5 251.743421 L 342.6 238.223684 M 337.3 237.039474 L 337.1 245.526316 M 348.1 237.927632 L 358.4 251.743421 M 348.2 251.743421 L 359.3 238.223684 M 354 237.039474 L 353.7 245.526316 " transform="matrix(0.0390625,0,0,0.0395833,0,0)"/>
<path style=" stroke:none;fill-rule:evenodd;fill:rgb(93.725491%,49.019608%,3.137255%);fill-opacity:1;" d="M 8.542969 10.277344 L 9.984375 10.289062 L 9.984375 9.375 L 8.335938 9.289062 Z M 8.472656 9.007812 L 10.007812 9.164062 L 9.996094 8.515625 L 8.496094 7.910156 L 8.472656 9.011719 Z M 8.785156 7.714844 L 9.960938 8.292969 L 10.128906 8.113281 C 10.128906 8.113281 10.019531 8.039062 10.027344 7.96875 C 10.027344 7.902344 10.136719 7.890625 10.136719 7.808594 C 10.136719 7.742188 10.019531 7.730469 10.015625 7.664062 C 10.007812 7.585938 10.109375 7.503906 10.109375 7.503906 L 9.046875 6.566406 L 8.78125 7.714844 Z M 16.519531 10.289062 L 14.996094 10.289062 L 14.984375 9.394531 L 16.65625 9.265625 Z M 15.007812 9.183594 L 16.816406 8.960938 L 16.425781 7.90625 L 14.996094 8.523438 Z M 16.324219 7.617188 L 15.019531 8.3125 C 15 8.234375 14.984375 8.160156 14.894531 8.101562 C 14.894531 8.101562 14.972656 8.054688 14.972656 7.976562 C 14.972656 7.898438 14.871094 7.882812 14.871094 7.835938 C 14.871094 7.792969 14.964844 7.75 14.972656 7.644531 C 14.960938 7.574219 14.871094 7.46875 14.886719 7.449219 L 15.902344 6.664062 Z M 13.496094 9.164062 L 14.148438 9.136719 L 14.160156 8.871094 Z M 11.503906 9.144531 L 10.820312 9.125 L 10.820312 8.847656 L 11.507812 9.144531 Z M 11.503906 9.066406 L 10.820312 8.707031 L 10.820312 8.242188 C 10.820312 8.242188 10.742188 8.253906 10.75 8.160156 C 10.753906 7.96875 11.253906 8.515625 11.507812 8.691406 Z M 13.496094 9.019531 L 13.496094 8.714844 C 13.496094 8.714844 14.113281 8.152344 14.242188 8.046875 C 14.242188 8.167969 14.171875 8.253906 14.171875 8.253906 L 14.171875 8.695312 Z M 9.492188 6.484375 L 10.1875 7.261719 C 10.203125 7.191406 10.363281 7.179688 10.523438 7.191406 C 10.683594 7.203125 10.808594 7.179688 10.808594 7.296875 C 10.808594 7.410156 10.730469 7.394531 10.730469 7.476562 C 10.730469 7.558594 10.847656 7.550781 10.847656 7.65625 C 10.847656 7.757812 10.761719 7.738281 10.761719 7.816406 C 10.761719 7.886719 10.855469 7.890625 10.855469 7.890625 L 11.503906 8.527344 L 11.503906 7.84375 L 10.167969 5.71875 Z M 10.5625 5.675781 L 11.472656 7.554688 C 11.472656 7.554688 11.480469 5.824219 11.632812 5.730469 L 11.378906 5.257812 Z M 14.507812 5.75 L 13.492188 7.582031 L 13.492188 6.808594 C 13.492188 6.808594 13.578125 6.683594 13.445312 6.691406 C 13.3125 6.699219 13.152344 6.683594 13.152344 6.683594 L 13.558594 5.234375 Z M 15.546875 6.53125 C 15.535156 6.550781 14.863281 7.242188 14.863281 7.242188 C 14.832031 7.164062 14.628906 7.203125 14.433594 7.203125 C 14.238281 7.203125 14.214844 7.265625 14.226562 7.320312 C 14.246094 7.449219 14.3125 7.351562 14.3125 7.476562 C 14.3125 7.601562 14.21875 7.554688 14.207031 7.644531 C 14.21875 7.75 14.355469 7.722656 14.273438 7.800781 L 13.496094 8.5625 L 13.496094 7.839844 L 14.945312 5.5625 Z M 15.546875 6.53125 "/>
<path style="fill-rule:evenodd;fill:rgb(100%,0%,0%);fill-opacity:1;stroke-width:2.5;stroke-linecap:butt;stroke-linejoin:round;stroke:rgb(0%,0%,0%);stroke-opacity:1;stroke-miterlimit:4;" d="M 309.8 268.421053 C 301.5 282.236842 279.2 278.092105 273.9 268.421053 C 272.4 268.026316 273.3 208.914474 273.3 208.914474 C 273.3 208.914474 270.8 207.828947 270.7 205.855263 C 270.6 203.980263 274.1 203.881579 274.1 201.611842 C 274.1 199.342105 270.5 200.230263 270.4 197.763158 C 270.4 195.592105 274.3 195.789474 274.1 193.815789 C 273.9 191.447368 269.8 191.842105 269.6 189.572368 C 269.6 187.894737 272.6 186.414474 273.4 185.625 L 270.6 185.625 L 264.2 185.723684 C 259.6 185.723684 264.2 186.710526 264.2 189.276316 C 264.2 190.953947 261.9 192.236842 261.7 193.618421 C 261.6 195.197368 264.9 196.184211 265 198.059211 C 265 199.736842 261.7 199.835526 261.8 201.414474 C 262 203.881579 264.8 204.473684 264.7 206.052632 C 264.7 207.631579 261.1 208.223684 261 209.407895 C 261.2 211.776316 261.6 270.197368 261.6 270.197368 C 267.3 300 300.4 307.5 309.8 268.421053 Z M 331.7 268.421053 C 340 282.236842 362.3 278.092105 367.5 268.421053 C 369.1 268.026316 368.2 208.914474 368.2 208.914474 C 368.2 208.914474 370.7 207.828947 370.8 205.855263 C 370.9 203.980263 367.6 203.881579 367.6 201.611842 C 367.6 199.342105 371 200.230263 371 197.763158 C 371 195.592105 367.5 195.789474 367.7 193.618421 C 367.9 191.447368 370.7 191.644737 370.8 189.375 C 370.9 187.5 369.1 186.414474 368.2 185.625 L 370.9 185.625 L 377.3 185.723684 C 381.8 185.723684 377.3 186.710526 377.3 189.276316 C 377.3 190.953947 379.6 192.236842 379.8 193.618421 C 379.8 195.197368 376.6 196.184211 376.5 198.059211 C 376.5 199.736842 379.8 199.835526 379.7 201.414474 C 379.5 203.881579 376.7 204.473684 376.7 206.052632 C 376.8 207.631579 380.4 208.223684 380.4 209.407895 L 379.9 270.197368 C 374.2 300 341 307.5 331.7 268.421053 Z M 331.7 268.421053 " transform="matrix(0.0390625,0,0,0.0395833,0,0)"/>
<path style="fill-rule:evenodd;fill:rgb(3.137255%,23.921569%,61.176473%);fill-opacity:1;stroke-width:2.5;stroke-linecap:butt;stroke-linejoin:miter;stroke:rgb(3.137255%,23.921569%,61.176473%);stroke-opacity:1;stroke-miterlimit:4;" d="M 301.7 295.559211 L 339 295.559211 C 339.3 295.263158 330.6 282.631579 320.4 283.618421 C 308.9 283.914474 301.1 295.559211 301.7 295.559211 Z M 420.6 294.572368 L 369.6 294.572368 C 369.6 294.572368 376.2 290.822368 378 287.171053 C 381.3 289.046053 380.4 290.822368 387 291.118421 C 393.6 291.414474 399.9 283.618421 406.2 283.914474 C 412.5 284.210526 420.6 294.868421 420.6 294.671053 Z M 219.6 294.572368 L 270.6 294.572368 C 270.6 294.572368 264 290.822368 262.2 287.171053 C 258.9 289.046053 259.8 290.822368 253.2 291.118421 C 246.6 291.414474 240.2 283.618421 234 283.914474 C 227.7 284.210526 219.6 294.868421 219.6 294.671053 Z M 223.4 278.585526 L 259.7 278.881579 C 259.7 278.881579 257.4 273.947368 257.1 267.828947 C 247.7 264.572368 240.1 274.835526 233.3 275.131579 C 226.6 275.427632 219.6 267.828947 219.6 267.828947 Z M 417.4 278.585526 L 381 278.881579 C 381 278.881579 383.3 273.947368 383.6 267.828947 C 393 264.572368 400.6 274.835526 407.4 275.131579 C 414.1 275.427632 421.1 267.828947 421.1 267.828947 Z M 311 278.980263 L 329.4 278.486842 C 329.4 278.486842 329.7 272.861842 320.1 272.861842 C 310.5 272.861842 311.3 279.276316 311 278.980263 Z M 299.8 271.085526 C 303.3 269.605263 306.2 266.842105 308 263.486842 L 295.4 263.782895 C 295.4 263.782895 289.6 267.335526 286.7 271.085526 Z M 340.6 271.085526 C 337.1 269.605263 334.2 266.842105 332.4 263.486842 L 345 263.782895 C 345 263.782895 350.8 267.335526 353.7 271.085526 Z M 340.6 271.085526 " transform="matrix(0.0390625,0,0,0.0395833,0,0)"/>
<path style=" stroke:none;fill-rule:evenodd;fill:rgb(87.058824%,12.54902%,6.27451%);fill-opacity:1;" d="M -1.5625 14.25 L 26.5625 14.25 L 26.5625 19 L -1.5625 19 Z M -1.5625 0 L 26.5625 0 L 26.5625 4.75 L -1.5625 4.75 Z M -1.5625 0 "/>
</g>
</svg>

<svg xmlns="http://www.w3.org/2000/svg" width="25" height="px" viewBox="0 0 25 19"><path d="M0 0h25v19H0z" style="fill:#fff;fill-opacity:1;stroke:none"/><path d="M3.125 0h18.75v19H3.125Zm0 0" style="stroke:none;fill-rule:nonzero;fill:#fff;fill-opacity:1"/><path d="M277.3 340.757s10.8-8.783 21.4-8.783 13.4 7.302 20.8 7.894c7.3.593 13.4-7.302 22.5-7.598s20.5 6.414 20.5 6.414l-39.8 12.04-45.4-10.066Zm-22.9-12.928 135.4.69s-11.7-12.73-25.5-13.026c-13.8-.197-10 6.02-20.5 6.81-10.6.888-13.2-6.415-22.9-6.217-9.7.197-15.2 6.217-22.5 6.513s-16.7-7.303-22.3-7.007-25.5 8.684-25.5 8.684l3.8 3.652Zm-17.3-15.987 167 .494c2.7-3.85-8.2-12.928-18.1-13.718-8.2.296-14 8.487-20.8 8.783s-14.4-8.487-22-8.19c-7.6.296-15.5 8.19-23.1 8.19s-13.2-8.487-22.9-8.487-14 9.277-21.4 8.783-13.8-9.375-20.8-9.375-18.7 10.46-21 9.967c-2.4-.69 2.9 4.343 3.1 3.454Zm0 0" style="fill-rule:evenodd;fill:#083d9c;fill-opacity:1;stroke-width:2.5;stroke-linecap:butt;stroke-linejoin:miter;stroke:#083d9c;stroke-opacity:1;stroke-miterlimit:4" transform="scale(.03906 .03958)"/><path d="m301.3 218.882 38.4 10.263v-54.869c-17.6.987-32.2-33.355-1.2-35.723-30.5-4.342-34 3.552-37.5 12.04Zm0 0" style="fill-rule:evenodd;fill:red;fill-opacity:1;stroke-width:2.5;stroke-linecap:butt;stroke-linejoin:round;stroke:#000;stroke-opacity:1;stroke-miterlimit:4" transform="scale(.03906 .03958)"/><path d="m277 258.651 86.7.395" style="fill-rule:evenodd;fill:#083d9c;fill-opacity:1;stroke-width:5;stroke-linecap:round;stroke-linejoin:miter;stroke:#083d9c;stroke-opacity:1;stroke-miterlimit:4" transform="scale(.03906 .03958)"/><path d="m281.1 238.026 10.3 13.717m-10.3 0 11.1-13.52m-5.2-1.184-.3 8.487m10.8-7.598 10.3 13.815m-10.3 0 11.1-13.52m-5.2-1.184-.3 8.487m11.1-7.598 10.3 13.815m-10.3 0 11.1-13.52m-5.2-1.184-.3 8.487m11.7-7.598 10.2 13.815m-10.2 0 11.1-13.52m-5.3-1.184-.2 8.487m11-7.598 10.3 13.815m-10.2 0 11.1-13.52m-5.3-1.184-.3 8.487" style="fill:none;stroke-width:4;stroke-linecap:round;stroke-linejoin:miter;stroke:#000;stroke-opacity:1;stroke-miterlimit:4" transform="scale(.03906 .03958)"/><path d="m8.543 10.277 1.441.012v-.914l-1.648-.086Zm-.07-1.27 1.535.157-.012-.648-1.5-.606-.023 1.102Zm.312-1.292 1.176.578.168-.18s-.11-.074-.102-.144c0-.067.11-.078.11-.16 0-.067-.117-.079-.121-.145-.008-.078.093-.16.093-.16l-1.062-.938-.266 1.149Zm7.735 2.574h-1.524l-.012-.894 1.672-.13Zm-1.512-1.105 1.808-.223-.39-1.055-1.43.617Zm1.316-1.567-1.304.696c-.02-.079-.036-.153-.125-.211 0 0 .078-.047.078-.125 0-.079-.102-.094-.102-.141 0-.043.094-.086.102-.191-.012-.07-.102-.176-.086-.196l1.015-.785Zm-2.828 1.547.652-.027.012-.266Zm-1.992-.02-.684-.019v-.277l.688.297Zm0-.078-.684-.359v-.465s-.078.012-.07-.082c.004-.191.504.356.758.531Zm1.992-.046v-.305s.617-.563.746-.668c0 .121-.07.207-.07.207v.441ZM9.492 6.484l.695.778c.016-.07.176-.082.336-.07s.286-.012.286.105c0 .113-.079.098-.079.18s.118.074.118.18c0 .1-.086.081-.086.16 0 .07.093.074.093.074l.649.636v-.683l-1.336-2.125Zm1.07-.808.91 1.879s.008-1.73.16-1.825l-.253-.472Zm3.946.074-1.016 1.832v-.773s.086-.125-.047-.118-.293-.007-.293-.007l.407-1.45Zm1.039.781c-.012.02-.684.711-.684.711-.031-.078-.234-.039-.43-.039s-.218.063-.206.117c.02.13.085.032.085.157s-.093.078-.105.168c.012.105.148.078.066.156l-.777.761V7.84l1.45-2.277Zm0 0" style="stroke:none;fill-rule:evenodd;fill:#ef7d08;fill-opacity:1"/><path d="M309.8 268.421c-8.3 13.816-30.6 9.671-35.9 0-1.5-.395-.6-59.507-.6-59.507s-2.5-1.085-2.6-3.059c-.1-1.875 3.4-1.973 3.4-4.243s-3.6-1.382-3.7-3.849c0-2.17 3.9-1.974 3.7-3.947-.2-2.369-4.3-1.974-4.5-4.244 0-1.677 3-3.158 3.8-3.947h-2.8l-6.4.099c-4.6 0 0 .987 0 3.552 0 1.678-2.3 2.96-2.5 4.342-.1 1.58 3.2 2.566 3.3 4.441 0 1.678-3.3 1.777-3.2 3.355.2 2.468 3 3.06 2.9 4.639 0 1.579-3.6 2.17-3.7 3.355.2 2.368.6 60.79.6 60.79 5.7 29.802 38.8 37.302 48.2-1.777Zm21.9 0c8.3 13.816 30.6 9.671 35.8 0 1.6-.395.7-59.507.7-59.507s2.5-1.085 2.6-3.059c.1-1.875-3.2-1.973-3.2-4.243s3.4-1.382 3.4-3.849c0-2.17-3.5-1.974-3.3-4.145s3-1.973 3.1-4.243c.1-1.875-1.7-2.96-2.6-3.75h2.7l6.4.099c4.5 0 0 .987 0 3.552 0 1.678 2.3 2.96 2.5 4.342 0 1.58-3.2 2.566-3.3 4.441 0 1.678 3.3 1.777 3.2 3.355-.2 2.468-3 3.06-3 4.639.1 1.579 3.7 2.17 3.7 3.355l-.5 60.79C374.2 300 341 307.5 331.7 268.42Zm0 0" style="fill-rule:evenodd;fill:red;fill-opacity:1;stroke-width:2.5;stroke-linecap:butt;stroke-linejoin:round;stroke:#000;stroke-opacity:1;stroke-miterlimit:4" transform="scale(.03906 .03958)"/><path d="M301.7 295.56H339c.3-.297-8.4-12.928-18.6-11.942-11.5.296-19.3 11.941-18.7 11.941Zm118.9-.988h-51s6.6-3.75 8.4-7.4c3.3 1.874 2.4 3.65 9 3.946s12.9-7.5 19.2-7.204 14.4 10.954 14.4 10.757Zm-201 0h51s-6.6-3.75-8.4-7.4c-3.3 1.874-2.4 3.65-9 3.946s-13-7.5-19.2-7.204c-6.3.297-14.4 10.954-14.4 10.757Zm3.8-15.986 36.3.296s-2.3-4.935-2.6-11.053c-9.4-3.257-17 7.007-23.8 7.303-6.7.296-13.7-7.303-13.7-7.303Zm194 0-36.4.296s2.3-4.935 2.6-11.053c9.4-3.257 17 7.007 23.8 7.303 6.7.296 13.7-7.303 13.7-7.303Zm-106.4.394 18.4-.493s.3-5.625-9.3-5.625-8.8 6.414-9.1 6.118Zm-11.2-7.894c3.5-1.48 6.4-4.244 8.2-7.6l-12.6.297s-5.8 3.553-8.7 7.303Zm40.8 0c-3.5-1.48-6.4-4.244-8.2-7.6l12.6.297s5.8 3.553 8.7 7.303Zm0 0" style="fill-rule:evenodd;fill:#083d9c;fill-opacity:1;stroke-width:2.5;stroke-linecap:butt;stroke-linejoin:miter;stroke:#083d9c;stroke-opacity:1;stroke-miterlimit:4" transform="scale(.03906 .03958)"/><path d="M-1.562 14.25h28.125V19H-1.562Zm0-14.25h28.125v4.75H-1.562Zm0 0" style="stroke:none;fill-rule:evenodd;fill:#de2010;fill-opacity:1"/></svg>
